src/assets/t-shirt.svg

<svg width="37" height="32" viewBox="0 0 37 32" fill="none" xmlns="http://www.w3.org/2000/svg">
<path d="M28.8093 0.204296L28.5093 0.104296C28.1093 -0.095704 27.7093 0.00429597 27.3093 0.304296L27.0093 0.604296C25.9093 1.9043 22.5093 3.2043 18.1093 3.2043C14.1093 3.2043 10.4093 2.1043 9.30932 0.704296L9.20932 0.404296C8.90932 0.00429597 8.40932 -0.095704 7.90932 0.104296L7.70932 0.304296C2.70932 2.8043 -1.49068 7.0043 0.509319 30.7043C0.509319 31.2043 1.00932 31.6043 1.50932 31.6043H34.9093C35.4093 31.6043 35.9093 31.2043 35.9093 30.7043C37.9093 7.0043 33.7093 2.8043 28.8093 0.204296ZM34.0093 29.6043H29.0093C29.1093 20.8043 29.4093 15.9043 29.7093 12.4043C29.7093 11.8043 29.3093 11.4043 28.8093 11.3043C28.2093 11.2043 27.8093 11.7043 27.7093 12.2043C27.4093 15.8043 27.1093 20.6043 27.0093 29.6043H9.40932C9.30932 20.7043 9.00932 15.8043 8.70932 12.2043C8.70932 11.7043 8.20932 11.2043 7.60932 11.3043C7.00932 11.3043 6.60932 11.8043 6.70932 12.4043C7.00932 15.9043 7.30932 20.7043 7.40932 29.6043H2.50932C0.709319 8.7043 4.10932 4.5043 8.10932 2.3043C9.90932 4.1043 13.8093 5.2043 18.1093 5.2043C22.5093 5.2043 26.4093 4.0043 28.2093 2.3043C32.3093 4.4043 35.6093 8.6043 34.0093 29.6043Z" fill="#4A4A4A"/>
</svg>

<?xml version="1.0" encoding="utf-8"?>
<!-- Generator: Adobe Illustrator 23.0.0, SVG Export Plug-In . SVG Version: 6.00 Build 0)  -->
<svg version="1.1" id="Calque_1" xmlns="http://www.w3.org/2000/svg" xmlns:xlink="http://www.w3.org/1999/xlink" x="0px" y="0px"
	 viewBox="0 0 36.4 31.6" style="enable-background:new 0 0 36.4 31.6;" xml:space="preserve">
<style type="text/css">
	.st0{fill:#4A4A4A;}
</style>
<path class="st0" d="M28.8,0.2l-0.3-0.1c-0.4-0.2-0.8-0.1-1.2,0.2L27,0.6c-1.1,1.3-4.5,2.6-8.9,2.6c-4,0-7.7-1.1-8.8-2.5L9.2,0.4
	C8.9,0,8.4-0.1,7.9,0.1L7.7,0.3C2.7,2.8-1.5,7,0.5,30.7c0,0.5,0.5,0.9,1,0.9h33.4c0.5,0,1-0.4,1-0.9C37.9,7,33.7,2.8,28.8,0.2z
	 M34,29.6h-5c0.1-8.8,0.4-13.7,0.7-17.2c0-0.6-0.4-1-0.9-1.1c-0.6-0.1-1,0.4-1.1,0.9c-0.3,3.6-0.6,8.4-0.7,17.4H9.4
	C9.3,20.7,9,15.8,8.7,12.2c0-0.5-0.5-1-1.1-0.9c-0.6,0-1,0.5-0.9,1.1c0.3,3.5,0.6,8.3,0.7,17.2H2.5C0.7,8.7,4.1,4.5,8.1,2.3
	c1.8,1.8,5.7,2.9,10,2.9c4.4,0,8.3-1.2,10.1-2.9C32.3,4.4,35.6,8.6,34,29.6z"/>
</svg>
